Delta/apps/scalable/tinder.svg

<svg width="192" height="192" version="1.1" viewBox="0 0 192 192" xmlns="http://www.w3.org/2000/svg">
 <path d="m96 183c48.049 0 87-38.951 87-87 0-48.049-38.951-87-87-87-48.049 0-87 38.951-87 87 0 48.049 38.951 87 87 87z" clip-rule="evenodd" fill="#FF837D" fill-rule="evenodd"/>
 <path d="m65.182 93c2.6649-8.3679 9.542-16.13 14.968-19.176 0 6.0436 3.2769 12.419 3.2769 12.419s10.79-3.8901 13.001-12.419c2.3301-8.9864 2.2115-12.109 2.2115-17.823 11.99 3.8151 23.589 20.392 26.09 25.506 9.719 19.876 0.982 49.91-29.416 49.91-30.398 0-33.77-26.993-30.132-38.416z" clip-rule="evenodd" fill="#fff" fill-rule="evenodd"/>
</svg>

<svg width="192" height="192" viewBox="0 0 192 192" fill="none" xmlns="http://www.w3.org/2000/svg">
<path fill-rule="evenodd" clip-rule="evenodd" d="M96 183C144.049 183 183 144.049 183 96C183 47.9512 144.049 9 96 9C47.9512 9 9 47.9512 9 96C9 144.049 47.9512 183 96 183Z" fill="#FF837D"/>
<path fill-rule="evenodd" clip-rule="evenodd" d="M65.1815 92.9997C67.8464 84.6318 74.7235 76.8696 80.1499 73.8232C80.1499 79.8668 83.4268 86.2422 83.4268 86.2422C83.4268 86.2422 94.2167 82.3521 96.4281 73.8232C98.7582 64.8368 98.6396 61.7141 98.6396 56C110.63 59.8151 122.229 76.3925 124.73 81.5057C134.449 101.382 125.712 131.416 95.314 131.416C64.9159 131.416 61.5435 104.423 65.1815 92.9997Z" fill="white"/>
</svg>
